!!!!SEGMENT: pl-wtm--r-1424--001_stefani-jozef--polonez.krn
!!!cenid: 18xx:2435
!!!COM: Stefani, Józef
!!!COM-rismID: pe30024097
!!!CDT: 1800/04/16-1876/03/19
!!!CNT: Polish
!!!OTL: Polonez
!!!OMV: 001
!!!PDT:
!!!AGN: Secular; Polonaise
!!!SMS-siglum: PL-Wtm
!!!SMS-shelfmark: R 1424
!!!SMS-shelfwork: W
!!!SMS-variant:
!!!SMS-altvar:
!!!NIFC-rismSourceID: 1001116234
!!!NIFC-islandoraID:
!!!URL-pdf-islandora:
!!!URL-scan:
!!!ONB-nifc: UWAGA: w zbiorze: 1. Polonez, 2. Polka
!!!AIN: 1 forte
!!!key:
**kern	**kern	**dynam
*part1	*part1	*part1
*staff2	*staff1	*
*Iforte	*Iforte	*
*I"Fortepian	*I"Fortepian	*
*>[A,B,B,C,C,D,C,C]	*>[A,B,B,C,C,D,C,C]	*>[A,B,B,C,C,D,C,C]
*>A	*>A	*>A
*clefF4	*clefG2	*
*k[f#c#]	*k[f#c#]	*
*d:	*d:	*
*M3/4	*M3/4	*
=1	=1	=1
*	*tremolo	*
*	*2\right	*
!	!	!LO:DY:rj
4r	(32dddLLL 32ffn\	f
.	32dd\	.
.	32ddd 32ff\	.
.	32dd\	.
.	32ddd 32ff\	.
.	32dd\	.
.	32ddd 32ff\	.
.	32dd\	.
8.r	32ddd 32ff\	.
.	32dd\	.
.	32ddd 32ff\	.
.	32dd\	.
.	32ddd 32ff\	.
.	32dd\	.
(32D\LLL	32ddd 32ff\	.
32E\JJJ	32dd\	.
8Fn\L)	32ddd 32ff\	.
.	32dd\	.
.	32ddd 32ff\	.
.	32dd\	.
8BB-X'\J	32ddd 32ff\	.
.	32dd\	.
.	32ddd 32ff\	.
.	32dd\JJJ	.
=2	=2	=2
4r	32dddLLL 32ffn\	.
.	32dd\	.
.	32ddd 32ff\	.
.	32dd\	.
.	32ddd 32ff\	.
.	32dd\	.
.	32ddd 32ff\	.
.	32dd\	.
8.r	32ddd 32ff\	.
.	32dd\	.
.	32ddd 32ff\	.
.	32dd\	.
.	32ddd 32ff\	.
.	32dd\	.
(32D/LLL	32ddd 32ff\	.
32E/JJJ	32dd\	.
8Fn/L)	32ddd 32ff\	.
.	32dd\	.
.	32ddd 32ff\	.
.	32dd\	.
8AA'/J	32ddd 32ff\	.
.	32dd\	.
.	32ddd 32ff\	.
.	32dd\JJJ	.
=3	=3	=3
4r	32dddLLL 32ffn\	.
.	32dd\	.
.	32ddd 32ff\	.
.	32dd\	.
.	32ddd 32ff\	.
.	32dd\	.
.	32ddd 32ff\	.
.	32dd\	.
8.r	32ddd 32ff\	.
.	32dd\	.
.	32ddd 32ff\	.
.	32dd\	.
.	32ddd 32ff\	.
.	32dd\	.
32D/LLL	32ddd 32ff\	.
32E/JJJ	32dd\	.
8Fn/L	32ddd 32ff\	.
.	32dd\	.
.	32ddd 32ff\	.
.	32dd\	.
8GG#X/J	32ddd 32ff\	.
.	32dd\	.
.	32ddd 32ff\	.
.	32dd\JJJ	.
!!LO:LB:g=original
=4	=4	=4
4.GG#X/	32dddLLL 32ffn\	.
.	32dd\	.
.	32ddd 32ff\	.
.	32dd\	.
.	32ddd 32ff\	.
.	32dd\	.
.	32ddd 32ff\	.
.	32dd\	.
.	32ddd 32ff\	.
.	32dd\	.
.	32ddd 32ff\	.
.	32dd\	.
8G#XL 8GG#/	32ddd 32ff\	.
.	32dd\	.
.	32ddd 32ff\	.
.	32dd\	.
8G# 8GG#/	32ddd 32ff\	.
.	32dd\	.
.	32ddd 32ff\	.
.	32dd\	.
8G#J 8GG#/	32ddd 32ff\	.
.	32dd\	.
.	32ddd 32ff\	.
.	32dd\JJJ)	.
*	*Xtremolo	*
=5	=5	=5
8A 8AA\	8ccc# 8aa 8ee\	.
16r	16r	.
32ALLL 32E 32C# 32AA\	32aaLLL 32cc# 32a\	.
32AJJJ 32E 32C# 32AA\	32aaJJJ 32cc# 32a\	.
8A 8E 8C# 8AA\	8aa 8cc# 8a\	.
8r	(16bb-X\LL	.
.	16aa\JJ	.
4A 4Fn 4D\	16gg\LL	.
.	16ffn\	.
.	16ee\	.
.	16dd\JJ)	.
=6	=6	=6
8A 8E 8AA\	8cc#\	.
16r	16r	.
32ALLL 32E 32C# 32AA\	32aaLLL 32cc# 32a\	.
32AJJJ 32E 32C# 32AA\	32aaJJJ 32cc# 32a\	.
8A 8E 8C# 8AA\	8aa 8cc# 8a\	.
8r	(16bb-X\LL	.
.	16aa\JJ	.
4A 4Fn 4D\	16gg\LL	.
.	16ffn\	.
.	16ee\	.
.	16dd\JJ)	.
!!LO:LB:g=original
=7	=7	=7
8A 8E 8AA\	8cc#\	.
16r	16r	.
32ALLL 32E 32C# 32AA\	32aaLLL 32cc# 32a\	.
32AJJJ 32E 32C# 32AA\	32aaJJJ 32cc# 32a\	.
8A 8E 8C# 8AA\	8aa 8cc# 8a\	.
8r	(16bb-X\LL	.
.	16aa\JJ	.
4G 4D 4BB-X\	16gg\LL	.
.	16ffn\	.
.	16ee\	.
.	16dd\JJ)	.
=8	=8	=8
8A 8E 8C# 8AA\	8aa 8cc# 8a\	.
16A\LL	16a/LL	>
16A\JJ	16a/JJ	.
8A\L	8a/L	.
16A\L	16a/L	.
16A\JJ	16a/JJ	.
8A\	8a/	.
8r	8a/	]
=9	=9	=9
*^	*	*
!	!LO:N:vis=2	!	!LO:DY:rj
2D/	8D\L	8dd\L|	p
!	!	!LO:TUP:a	!
.	8A 8F#\	(24ee\L	.
.	.	24dd\	.
.	.	24cc#\JJ	.
.	8A 8F#\	16dd\LL	.
.	.	16ee\	.
.	8AJ 8F#\	16ff#\	.
.	.	16gg\JJ	.
4D/	8D\L	8aa\L)	.
.	8AJ 8F#\	8dd'\J	.
=10	=10	=10	=10
4D/	8D\L	8dddL 8bb'^<\	.
.	8BJ 8G\	8bbJ 8gg'^<\	.
!	!LO:N:vis=2	!	!
2D/	8D\L	8aaL 8ff#'^<\	.
.	8A 8F#\	(16gg#XL 16ee#X\	.
.	.	16aaJJ 16ff#\	.
.	8A 8F#\	16bbLL 16ggn\	.
.	.	16aa 16ff#\	.
!	!	!LO:SIC:v:n=2:s=16een\	!
.	8AJ 8F#\	16gg 16ee#\	.
.	.	16ff#JJ 16dd\)	.
*v	*v	*	*
!!LO:LB:g=original
=11	=11	=11
8AA\L	(16ff#\LL	.
.	16ee\JJ)	.
8AJ 8G 8E\	4a/	.
8C#\L	.	.
8AJ 8G 8E\	(16ff#\LL	.
.	16ee\JJ)	.
8AA\L	8a\L	.
8AJ 8G 8E\	8cc#\J	.
=12	=12	=12
*^	*	*
4D/	8D\L	(16dd\LL	.
.	.	16ff#\	.
.	8AJ 8F#\	16ee\	.
.	.	16gg\JJ	.
4D/	8D\L	16ff#\LL	.
.	.	16aa\	.
.	8BJ 8G\	16gg\	.
.	.	16bb\JJ	.
8A 8F# 8D\	4ryy	8aa\)	.
8r	.	8a/	.
=13	=13	=13	=13
!	!LO:N:vis=2	!	!
2D/	8D\L	8dd\L|	.
!	!	!LO:TUP:a	!
.	8A 8F#\	(24ee\L	.
.	.	24dd\	.
.	.	24cc#\JJ	.
.	8A 8F#\	16dd\LL	.
.	.	16ee\	.
.	8AJ 8F#\	16ff#\	.
.	.	16gg\JJ	.
4D/	8D\L	8aa\L)	.
.	8AJ 8F#\	8dd'\J	.
=14	=14	=14	=14
4D/	8D\L	8dddL 8bb'^<\	.
.	8BJ 8G\	8bbJ 8gg'^<\	.
!	!LO:N:vis=2	!	!
2D/	8D\L	8aa 8ff#'^<\	.
.	8A 8F#\	(16gg#XLL 16ee#X\	.
.	.	16aaJJ 16ff#\	.
.	8A 8F#\	16bbLL 16ggn\	.
.	.	16aa 16ff#\	.
!	!	!LO:SIC:v:n=2:s=16een\	!
.	8AJ 8F#\	16gg 16ee#\	.
.	.	16ff#JJ 16dd\)	.
!!LO:LB:g=original
=15	=15	=15	=15
!	!	!	!LO:DY:rj
4E/	8E\L	(8.ee\L	f
.	8c#J 8A\	.	.
.	.	32aa\LL	.
.	.	32ccc#\JJJ	.
4E/	8E\L	8eee\)	.
.	8c#J 8A\	(16ee\LL	.
.	.	16ff#\JJ	.
4E/	8E\L	16ee\LL	.
.	.	16dd\	.
.	8dJ 8G#X\	16b\	.
.	.	16cc#\JJ)	.
*v	*v	*	*
=16	=16	=16
8c# 8A\	8a/	.
8r	8r	.
!	!	!LO:DY:rj
8A 8E 8AA\	8aa 8cc# 8a\	sf
16A\LL	16a/LL	.
16A\JJ	16a/JJ	.
8A\	8a/	.
8ryy	8a/	.
.	.	f
=17	=17	=17
8D 8DD/	8d/L|>	.
!	!LO:TUP:b	!
8AL 8F# 8D\	(24ee/L	.
.	24dd/	.
.	24cc#/JJ	.
8A 8F# 8D\	16dd\LL	.
.	16ee\	.
8AJ 8F# 8D\	16ff#\	.
.	16gg\JJ	.
8DL 8DD/	8aa\L)	.
8AJ 8F# 8D/	8dd'\J	.
=18	=18	=18
8D 8DD/	8dddL 8bb'^<\	.
8B 8G 8D\	8bbJ 8gg'^<\	.
8D 8DD/	8aaL 8ff#'^<\	.
8AL 8F# 8D\	(16gg#XL 16ee#X\	.
.	16aaJJ 16ff#\	.
8A 8F# 8D\	16bbLL 16ggn\	.
.	16aa 16ff#\	.
8AJ 8F# 8D\	16ggn 16een\	.
.	16ff#JJ 16dd\)	.
!!LO:LB:g=original
=19	=19	=19
*^	*	*
8AA\L	4ryy	(16ff#\LL	.
.	.	16ee\JJ)	.
8AJ 8G 8E\	.	4a/	.
8C#\L	4ryy	.	.
8AJ 8G 8E\	.	(16ff#\LL	.
.	.	16ee\JJ)	.
4AA/	8AA\L	8a/L	.
.	8AJ 8G 8E\	8cc#/J	.
*v	*v	*	*
=20	=20	=20
8DL 8DD\	(16dd\LL	.
.	16ff#\	.
8AJ 8F# 8D\	16ee\	.
.	16gg\JJ	.
8DL 8DD\	16ff#\LL	.
.	16aa\	.
8BJ 8G 8D\	16gg\	.
.	16bb\JJ)	.
8A 8F# 8D\	8aa\	.
8r	8a/	.
=21	=21	=21
*^	*	*
8D 8DD/	4ryy	8dd\L|	.
!	!	!LO:TUP:a	!
8AL 8F# 8D\	.	(24ee\L	.
.	.	24dd\	.
.	.	24cc#\JJ	.
8A 8F# 8D\	4ryy	16dd\LL	.
.	.	16ee\	.
8AJ 8F# 8D\	.	16ff#\	.
.	.	16gg\JJ	.
4D/	8DL 8DD\	8aa\L)	.
.	8AJ 8F# 8D\	8dd'\J	.
*v	*v	*	*
=22	=22	=22
8DL 8DD\	8dddL 8bb'^<\	.
8BJ 8G 8D\	8bbJ 8gg'^<\	.
8DL 8DD\	8aaL 8ff#'^<\	.
8A 8F# 8D\	(16gg#XL 16ee#X\	.
.	16aaJJ 16ff#\	.
8A 8F# 8D\	16bbLL 16ggn\	.
.	16aa 16ff#\	.
8AJ 8F# 8D\	16gg 16een\	.
.	16ff#JJ 16dd\)	.
!!LO:PB:g=original
=23	=23	=23
8EL 8EE\	8.ee\L	.
8c#J 8A 8E\	.	.
.	(32aa\LL	.
.	32ccc#\JJJ	.
8EL 8EE\	8eee\)	.
8c#J 8A 8E\	(16ee\LL	.
.	16ff#\JJ	.
8EL 8EE\	16ee\LL	.
.	16dd\	.
8dJ 8G#X 8E\	16b\	.
.	16cc#\JJ)	.
=24	=24	=24
8c# 8A\	8a/	.
8r	8r	.
4A 4E 4AA\	4aa 4cc# 4a\	sf
4r	16r	.
.	(16aa\LL	.
.	16gg#X\	.
!LO:TX:a:t=[segno]:problem=wymazane ołówkiem segno na kresce taktowej	!LO:TX:a:t=[segno]:problem=wymazane ołówkiem segno na kresce taktowej	!
.	16aa\JJ)	.
=25	=25	=25
*>B	*>B	*>B
!	!	!LO:DY:rj
8C#\L	(16bb\LL	p
.	16aa\JJ)	.
8AJ 8G 8E\	4ee'^<\	.
8AA\L	.	.
8AJ 8G 8E\	(16bb\LL	.
.	16aa\JJ)	.
8C#\L	8ee'\L	.
8AJ 8G 8E\	(16bb\L	.
.	16aa\JJ)	.
!!LO:LB:g=original
=26	=26	=26
8D\L	(16bb\LL	.
.	16aa\JJ)	.
8AJ 8F#\	4ff#'^<\	.
8AA\L	.	.
8AJ 8F# 8D\	(16bb\LL	.
.	16aa\JJ)	.
8D\L	8ff#'\L	.
8AJ 8F#\	(16bb\L	.
.	16aa\JJ)	.
=27	=27	=27
!	!	!LO:DY:rj
8E 8EE/	(16gg#X\LL	f
.	16aa\	.
8d 8B 8E\	16gg#\	.
.	16ff#\JJ	.
*tremolo	*	*
*2\right	*	*
8dL 8B 8E\	16gg#\LL	.
.	16aa\	.
8d 8B 8E\	16bb\	.
.	16ccc#\JJ	.
8d 8B 8E\	16ddd\LL	.
.	16eee\	.
8dJ 8B 8E\	16fff#\JJ)	.
.	32r	.
.	32gg#\|	.
*Xtremolo	*	*
=28	=28	=28
!LO:TX:t=P:problem=mixed beam	!	!
8AA/L	8aa'\L	.
8c#J 8A 8E\	(16gg#X\L	.
.	16aa\JJ	.
8c#L 8A 8E\	16ccc#\LL	.
.	16aa\	.
8c#J 8A 8E\	16ee\	.
.	16cc#\JJ	.
8c# 8A 8E\	16a/)	.
.	(16aa\LL	.
8r	16gg#X\	.
.	16aa\JJ)	.
!!LO:LB:g=original
=29	=29	=29
*^	*	*
4C#/	8C#\L	(16bb\LL	p
.	.	16aa\JJ)	.
.	8AJ 8G 8E\	4ee'^<\	.
4ryy	8AA\L	.	.
.	8AJ 8G 8E\	(16bb\LL	.
.	.	16aa\JJ)	.
4C#/	8C#\L	8ee'\L	.
.	8AJ 8G 8E\	(16bb\L	.
.	.	16aa\JJ)	.
=30	=30	=30	=30
4D/	8D\L	(16bb\LL	.
.	.	16aa\JJ)	.
.	8AJ 8F#\	4ff#'^<\	.
4ryy	8AA\L	.	.
.	8AJ 8F# 8D\	(16bb\LL	.
.	.	16aa\JJ)	.
4D/	8D\L	8ff#'\L	.
.	8AJ 8F#\	(16bb\L	.
.	.	16aa\JJ)	.
*v	*v	*	*
=31	=31	=31
!	!	!LO:DY:rj
8BB-X 8BBB-X/	(16dd\LL	f
.	16cc#\	.
8B-X 8Fn 8D 8BB-X\	16dd\	.
.	16ee\JJ	.
8B-L 8F 8D 8BB-\	16ffn\LL	.
.	16cc#\	.
8B- 8F 8D 8BB-\	16dd\	.
.	16ee\JJ	.
8B- 8E 8D 8BB-\	16ff\LL	.
.	16ff#X\	.
8B-J 8E 8D 8BB-\	16gg\	.
.	16gg#X\JJ)	.
!!LO:LB:g=original
=32	=32	=32
*	*^	*
8A 8E 8C# 8AA\	8aa\	4ryy	.
8r	8r	.	.
!	!	!	!LO:DY:rj
8A 8E 8C# 8AA\	4aa 4cc# 4a^<\	8ryy	sf
8g>L 8e>\	.	8ryy	p
8f#> 8d>\	8.r	4ryy	.
8e>J 8A>\	.	.	.
.	(16a/|>	.	.
*	*v	*v	*
=33	=33	=33
*^	*	*
!	!LO:N:vis=2	!	!
2.D/	8D\L	8dd\L)	.
!	!	!LO:TUP:a	!
.	8d 8A 8F#\	(24ee\L	.
.	.	24dd\	.
.	.	24cc#\JJ	.
.	8d 8A 8F#\	16dd\LL	.
.	.	16ee\	.
.	8d 8A 8F#\	16ff#\	.
.	.	16gg\JJ	.
.	8d 8A 8F#\	8aa\L)	.
.	8dJ 8A 8F#\	8dd'\J	.
=34	=34	=34	=34
4D/	8D\L	8dddL 8bb'^<\	.
.	8dJ 8B 8G\	8bbJ 8gg'^<\	.
4D/	8D\L	8aa 8ff#'\	.
.	8dJ 8A 8F#\	(16gg#XLL 16ee#X\	.
.	.	16aaJJ 16ff#\	.
4D/	8D\L	16bbLL 16ggn\	.
.	.	16aa 16ff#\	.
.	8dJ 8A 8F#\	16ggn 16een\	.
.	.	16ff#JJ 16dd\)	.
!!LO:LB:g=original
=35	=35	=35	=35
4C#/	8C#\L	(16ff#\LL	.
.	.	16ee\JJ)	.
.	8eJ 8A 8G\	4a^/	.
4ryy	8AA\L	.	.
.	8eJ 8A 8G\	(16ff#\LL	.
.	.	16ee\JJ)	.
4ryy	8C#\L	8a/L	.
.	8eJ 8A 8G\	8cc#/J	.
=36	=36	=36	=36
4D/	8D\L	(16dd\LL	.
.	.	16ff#\	.
.	8dJ 8A 8F#\	16ee\	.
.	.	16gg\JJ	.
4D/	8D\L	16ff#\LL	.
.	.	16aa\	.
.	8dJ 8B 8G\	16gg\	.
.	.	16bb\JJ)	.
8d 8A 8F# 8D\	4ryy	8aa\	.
8r	.	8a/	.
=37	=37	=37	=37
!	!	!	!LO:DY:rj
4Cn/	8Cn\L	8dd'\L	f
!	!	!LO:TUP:a	!
.	8AJ 8F# 8D\	(24ee\L	.
.	.	24dd\	.
.	.	24cc#\JJ	.
!	!LO:N:vis=2	!	!
2C/	8C\L	16dd\LL	.
.	.	16ee\	.
.	8A 8F# 8D\	16ff#\	.
.	.	16gg\JJ	.
.	8A 8F# 8D\	8aa\L)	.
.	8AJ 8F# 8D\	8dd'\J	.
*v	*v	*	*
=38	=38	=38
8GL 8D 8BB\	8ggL 8dd'^<\	.
8F# 8FF#\	8aa 8dd'^<\	.
8GJ 8GG\	8bbJ 8gg 8dd'^<\	.
8r	8r	.
4G#X 4GG#X\	4bb 4ffn 4dd\	sf
!!LO:LB:g=original
=39	=39	=39
8A 8AA\	16aa 16ff#X 16dd'\	.
.	(16ddd\LL	.
8r	16ccc#\	.
.	16ddd\JJ)	.
8A 8F# 8D 8AA\	16ff#'\	.
.	(16aa\LL	.
8r	16gg#X\	.
.	16aa\JJ)	.
8A 8F# 8D 8AA\	16dd'\	.
.	(16ff#\LL	.
8r	16ee#X\	.
.	16ff#\JJ)	.
=40	=40	=40
4G 4E 4AA\	(16bb\LL	.
.	16aa\	.
.	16ggn\)	.
.	32r	.
.	32cc#\JJk|	.
8r	(4ee\	.
8GL 8E 8AA\	.	.
8F#J 8D\	8dd\)	.
!LO:TX:b:t=fine	!LO:TX:a:t=P:problem=fermata na kresce taktowej	!
!LO:TX:a:t=[segno]:problem=wymazane ołówkiem segno na kresce taktowej	!LO:TX:a:t=[segno]:problem=wymazane ołówkiem segno na kresce taktowej	!
8r	8r;	.
!!LO:PB:g=original
=41:|!	=41:|!	=41:|!
!!!OMD: Trio.
*>C	*>C	*>C
*k[cnf#]	*k[cnf#]	*
*M3/4	*M3/4	*
!LO:TX:t=P:problem=mixed beam	!LO:TX:t=[segno]	!
8GG/L|	4r	fp
!LO:S:s=2:note:problem=note-level slur	!	!
(8dJ (>8D\	.	.
4B) 4G\)	8r	.
.	(8bL 8g/	.
4r	8cc 8a/	.
.	8cc#XJ 8a#X/)	.
=42	=42	=42
!LO:TX:t=P:problem=mixed beam	!	!
8GG/L|	4dd 4b\	.
(8dJ (8D\	.	.
4B 4G\))	8r	.
.	(8bL 8g/	.
4r	8cc 8a/	.
.	8cc#XJ 8a#X/)	.
=43	=43	=43
!LO:TX:t=P:problem=mixed beam	!	!
8GG/L	4dd 4b\	.
8dJ 8D\	.	.
4B 4G\	8r	.
.	(8bL 8g/	.
4r	8cc 8a/	.
.	8cc#XJ 8a#X/)	.
!!LO:LB:g=original
=44	=44	=44
!LO:TX:t=P:problem=mixed beam	!	!
8GG/L	4.dd 4.b\	.
(8dJ (8D\	.	.
4B 4G\))	.	.
.	8b 8g/	.
4r	(16ccLL 16a/	.
.	16b 16g/	.
.	16a 16f#/	.
.	16bJJ 16g/)	.
=45	=45	=45
!LO:TX:t=P:problem=mixed beam	!LO:S:s=2:note:problem=note-level slur	!
8DD/L	(4dd (>4b\	.
(8d^J (8D\	.	.
4c 4F#\))	8cc) 8a\)	.
.	8r	.
4r	8r	.
.	8cc 8a\	.
=46	=46	=46
!LO:TX:t=P:problem=mixed beam	!	!
8DD/L	4.ee 4.cc\	.
8dJ 8D\	.	.
4c 4F#\	.	.
.	8dd 8b\	.
4r	8.eeL 8.cc\	.
.	16ddJk 16b\	.
=47	=47	=47
!LO:TX:t=P:problem=mixed beam	!	!
8GG/L	4b 4g/	.
8dJ 8D\	.	.
4B 4G\	8.r	.
.	16bb 16gg\|	.
4r	8.cccL 8.aa\|	.
.	16bbJk 16gg\|	.
!!LO:LB:g=original
=48	=48	=48
!LO:TX:t=P:problem=mixed beam	!	!
8DD/L	4aa 4dd\	.
8dJ 8D\	.	.
4c 4F#\	8.r	.
.	16aa 16dd\|	.
.	(<8qccc 8qaa/	.
4r	8.bbL 8.gg\)	.
.	16aaJk 16dd\|	.
=49	=49	=49
!LO:TX:t=P:problem=mixed beam	!	!
8GG/L	4gg 4b\	.
8dJ 8D\	.	.
4B 4G\	8r	.
.	(8ggL 8b 8g\	.
4r	8aa 8cc 8a\	.
.	8aa#XJ 8cc#X 8a#X\)	.
=50	=50	=50
!LO:TX:t=P:problem=mixed beam	!	!
8GG/L	4bb 4dd 4b\	.
8dJ 8D\	.	.
4B 4G\	8r	.
.	(8ggL 8b 8g\	.
4r	8aa 8cc 8a\	.
.	8aa#XJ 8cc#X 8a#X\)	.
=51	=51	=51
!LO:TX:t=P:problem=mixed beam	!	!
8GG/L	4.bb 4.dd 4.b\	.
8dJ 8D\	.	.
4B 4G\	.	.
.	(8ggL 8b 8g\	.
4r	8aa 8cc 8a\	.
.	8aa#XJ 8cc#X 8a#X\)	.
!!LO:LB:g=original
=52	=52	=52
!LO:TX:t=P:problem=mixed beam	!	!
8GG/L	4.bb 4.dd 4.b\	.
8dJ 8D\	.	.
4B 4G\	.	.
.	8bb 8gg\	.
4r	(16cccLL 16aa\	.
.	16bb 16gg\	.
.	16aa 16ff#\	.
.	16bbJJ 16gg\)	.
=53	=53	=53
!LO:TX:t=P:problem=mixed beam	!LO:S:s=2:note:problem=note-level slur	!
8DD/L	(4ddd (>4bb\	.
8dJ 8D\	.	.
4c 4F#\	8ccc 8aa\))	.
.	8r	.
4r	4ccc 4aa 4cc\	.
=54	=54	=54
!LO:TX:t=P:problem=mixed beam	!LO:S:s=2:s=3:note:problem=note-level slur	!
8DD/L	(4.eee (>4.ccc (>4.ee'\	.
8dJ 8D\	.	.
4c 4F#\	.	.
.	8ddd) 8bb) 8dd\)|	.
4r	8.eeeL 8.ccc 8.ee\|	.
.	16dddJk 16bb 16dd\|	.
=55	=55	=55
!LO:TX:t=P:problem=mixed beam	!	!
8GG/L	4bb 4gg 4b\|	.
8dJ 8D\	.	.
4B 4G\	8.r	.
.	16bb 16gg\|	.
4r	8.cccL 8.aa\|	.
.	16bbJk 16gg\|	.
!!LO:LB:g=original
=56	=56	=56
!LO:TX:t=P:problem=mixed beam	!	!
8DD/L	4aa 4dd\	.
8dJ 8D\	.	.
4c 4F#\	8.r	.
.	16aa 16dd\	.
.	(<8qccc 8qaa/	.
4r	8.bbL 8.gg\)	.
.	16aaJk 16dd\|	.
=57	=57	=57
!LO:TX:t=P:problem=mixed beam	!	!
8GG/L	4gg 4b\	.
8dJ 8D\	.	.
4B 4G\	16r	.
.	(16dd\LL	.
.	16cc#X\	.
.	16dd\JJ	.
4r	16ee\LL	.
.	16ff#\	.
.	16gg\	.
.	16gg#X\JJ)	.
=58	=58	=58
!LO:TX:t=P:problem=mixed beam	!	!
8DD/L	(16aa\LL	.
.	16ff#\)	.
8cJ 8A 8F# 8D\	16dd'\	.
.	16dd'\JJ	.
.	(8qff#/	.
*rep	*	*
!LO:TX:t=P:problem=mixed beam	!	!
8DD/L	16ee\LL	.
.	16dd\)	.
8cJ 8A 8F# 8D\	16dd'\	.
.	16dd'\JJ	.
.	(>8qff#/	.
*Xrep	*	*
*rep	*	*
!LO:TX:t=P:problem=mixed beam	!	!
8DD/L	16ee\LL	.
.	16dd\)	.
8cJ 8A 8F# 8D\	16dd'\	.
.	16dd'\JJ	.
*Xrep	*	*
!!LO:LB:g=original
=59	=59	=59
8GG\L	(16bb\LL	.
.	16gg\)	.
8BJ 8G 8D\	16dd'\	.
.	16dd'\JJ	.
.	(>8qff#/	.
*rep	*	*
8GG\L	16ee\LL	.
.	16dd\)	.
8BJ 8G 8D\	16dd'\	.
.	16dd'\JJ	.
.	(>8qff#/	.
*Xrep	*	*
*rep	*	*
8GG\L	16ee\LL	.
.	16dd\)	.
8BJ 8G 8D\	16dd'\	.
.	16dd'\JJ	.
*Xrep	*	*
=60	=60	=60
!LO:TX:t=P:problem=mixed beam	!	!
8DD/L	(16aa\LL	.
.	16bb\	.
8cJ 8A 8F# 8D\	16aa\	<
.	16gg#X\JJ	.
*rep	*	*
!LO:TX:t=P:problem=mixed beam	!	!
8DD/L	16aa\LL	.
.	16bb\	.
8cJ 8A 8F# 8D\	16ccc\	.
.	16ccc#X\JJ	.
*rep	*	*
*Xrep	*	*
!LO:TX:t=P:problem=mixed beam	!	!
8DD/L	8.eee\L	.
8cJ 8A 8F# 8D\	.	.
.	16ddd\Jk)	[
*Xrep	*	*
=61	=61	=61
!	!	!LO:DY:rj
8GG\L	16bb'\LL	f
.	(16ggg\	.
8BJ 8G 8D\	16fff#\	.
.	16ggg\JJ)	.
8GG\L	8ddd\	.
8BJ 8G 8D\	8r	.
8B 8G 8D\	8r	.
8r	8dd\	.
!!LO:PB:g=original
=62	=62	=62
*^	*	*
4BB/	8BB\L	(16ddd^<\LL	.
.	.	16ccc\	.
.	8GJ 8D\	16bb\	.
.	.	16aa\JJ)	.
*rep	*rep	*	*
4BB/	8BB\L	(16bb^<\LL	.
.	.	16aa\	.
.	8GJ 8D\	16gg\	.
.	.	16ff#\JJ)	.
*Xrep	*Xrep	*	*
*rep	*rep	*	*
4BB/	8BB\L	(16gg^<\LL	.
.	.	16ff#\	.
.	8GJ 8D\	16ee\	.
.	.	16dd\JJ)	.
*Xrep	*Xrep	*	*
=63	=63	=63	=63
4C/	8C\L	(16eee^<\LL	.
.	.	16ddd\	.
.	8AJ 8E\	16ccc\	.
.	.	16bb\JJ)	.
*rep	*rep	*	*
4C/	8C\L	(16ccc^<\LL	.
.	.	16bb\	.
.	8AJ 8E\	16aa\	.
.	.	16gg\JJ)	.
*Xrep	*Xrep	*	*
*rep	*rep	*	*
4C/	8C\L	(16aa^<\LL	.
.	.	16gg\	.
.	8AJ 8E\	16ff#\	.
.	.	16ee\JJ)	.
*Xrep	*Xrep	*	*
=64	=64	=64	=64
4D/	8D\L	(16dd\LL	.
.	.	16ee\	.
.	8BJ 8G\	16dd\	.
.	.	16cc#X\JJ)	.
*rep	*rep	*	*
4D/	8D\L	16dd'\LL	.
.	.	(16gg\	.
.	8BJ 8G\	16ff#\	.
.	.	16gg\JJ)	.
*Xrep	*Xrep	*	*
*rep	*rep	*	*
4D/	8D\L	16dd'\LL	.
.	.	(16bb\	.
.	8BJ 8G\	16aa#X\	.
.	.	16bb\JJ)	.
*Xrep	*Xrep	*	*
*v	*v	*	*
!!LO:LB:g=original
=65	=65	=65
8cL 8A 8D\	(16eee\LL	.
.	16ddd\	.
8cJ 8A 8D\	16ccc\)	.
.	32r	.
.	32ff#\JJk|	.
8r	(4aa\	.
8cL 8F# 8D\	.	.
8BJ 8G\	8gg\)	.
!	!LO:TX:a:t=P:problem=fermata na kresce taktowej	!
8r	8r;	.
=66:|!	=66:|!	=66:|!
*>D	*>D	*>D
!	!	!LO:DY:rj
8.D#XL 8.DD#X/	8.bbL 8.ff# 8.b\|	f
16BJk 16F# 16D#/	16bbJk 16ff# 16b\|	.
8B 8F# 8D#\	8ff# 8b\|	.
8r	16r	.
.	16ff# 16b\	.
.	(<8qaa 8qff#/	.
4r	8.ggL 8.ee\)	.
.	16ff#Jk 16b\|	.
=67	=67	=67
8.EL 8.EE\	8.ggL 8.ee\|	.
16BJk 16F# 16D#X 16BB\	16ff#Jk 16b\|	.
8B 8G 8E\	8ee 8b\|	.
8r	(16ee'\LL	.
.	16ff#'\JJ	.
4r	16gg'\LL	.
.	16aa'\	.
.	16bb'\	.
.	16ccc'\JJ)	.
!!LO:LB:g=original
=68	=68	=68
8.F#L 8.FF#\	8.dddL 8.aa 8.dd\|	.
16dJk 16A 16F#\	16dddJk 16aa 16dd\|	.
8d 8A 8F#\	8aa 8dd\|	.
8r	16r	.
.	16aa 16dd\|	.
.	(<8qccc 8qaa/	.
4r	8.bbL 8.gg\)	.
.	16aaJk 16dd\	.
=69	=69	=69
8.GL 8.GG\	8.bbL 8.gg\	.
16cJk 16A 16F# 16D\	16aaJk 16dd\	.
8B 8G\	8gg 8dd\	.
8r	8r	.
4r	8.gg\L	.
.	16ff#\Jk	p
=70	=70	=70
*^	*	*
!	!LO:N:vis=2	!	!
2C/	8C\L	(16ff#\LL	.
.	.	16ee\	.
.	8A#X 8G 8E\	16dd#X\	<
.	.	16ee\JJ	.
.	8A# 8G 8E\	16dd#\LL	.
.	.	16ee\	.
.	8A#J 8G 8E\	16dd#\	.
.	.	16ee\JJ	.
4C/	8C\L	16dd#\LL	.
.	.	16ee\	.
.	8A#J 8F# 8E\	16ff#\	.
.	.	16ee\JJ)	[[
!!LO:LB:g=original
=71	=71	=71	=71
!	!LO:N:vis=2	!	!LO:DY:rj
2BB/	8BB\L	(16dd#X\LL	f
.	.	16b\	.
.	8B 8F# 8D#X\	16dd#\	.
.	.	16ff#\JJ	.
.	8B 8F# 8D#\	16bb\LL	.
.	.	16b\	.
.	8BJ 8F# 8D#\	16bb\	.
.	.	16b\JJ)	.
4E/	8E\L	(16aa\LL	.
.	.	16gg\	.
.	8BJ 8G\	16ff#\	.
.	.	16ee\JJ)	.
=72	=72	=72	=72
!	!LO:N:vis=2	!	!
2BB/	8BB\L	(16dd#X\LL	.
.	.	16b\	.
.	8B 8F# 8D#X\	16dd#\	.
.	.	16ff#\JJ	.
.	8B 8F# 8D#\	16bb\LL	.
.	.	16b\	.
.	8BJ 8F# 8D#\	16bb\	.
.	.	16b\JJ)	.
4E/	8E\L	(16aa\LL	.
.	.	16gg\	.
.	8BJ 8G\	16ff#\	.
.	.	16ee\JJ)	.
*v	*v	*	*
=73	=73	=73
8B 8F# 8D#X 8BB\	8bb 8ff# 8dd#X\	.
8r	8r	.
8A 8E 8C 8AA\	8ccc 8aa 8ee\	.
8r	8r	.
!	!LO:TX:t=[segno]:problem=znak segno na kresce taktowej	!
4d 4A 4F# 4Dn\	4ddd 4ff# 4ddn^<\	.
==	==	==
*-	*-	*-
!!!system-decoration: {(s1,s2)}
!!!RDF**kern: > = above
!!!RDF**kern: < = below
!!!RDF**kern: | = vertical stroke
!!!ENC: Marta Lawrence
!!!END: 2021-06-24
!!!ENC: Marcin Jachim
!!!END: 2021-06-19
!!!YEC: Copyright 2022 Narodowy Instytut Fryderyka Chopina (https://polishscores.org)
!!!YEM: Licence CC BY 4.0 (https://creativecommons.org/licenses/by/4.0)
